src/assets/filled/Money.svg

<?xml version="1.0" encoding="UTF-8"?>
<svg width="24" height="24" viewBox="0 0 24 24" xmlns="http://www.w3.org/2000/svg">
 <path d="m17 3.5h-10c-3 0-5 1.5-5 5v7c0 3.5 2 5 5 5h10c3 0 5-1.5 5-5v-7c0-3.5-2-5-5-5zm-10.75 11c0 0.41-0.34 0.75-0.75 0.75s-0.75-0.34-0.75-0.75v-5c0-0.41 0.34-0.75 0.75-0.75s0.75 0.34 0.75 0.75v5zm5.75 0.5c-1.66 0-3-1.34-3-3s1.34-3 3-3 3 1.34 3 3-1.34 3-3 3zm7.25-0.5c0 0.41-0.34 0.75-0.75 0.75s-0.75-0.34-0.75-0.75v-5c0-0.41 0.34-0.75 0.75-0.75s0.75 0.34 0.75 0.75v5z"/>
</svg>

<svg width="24" height="24" viewBox="0 0 24 24"  xmlns="http://www.w3.org/2000/svg">
<path d="M17 3.5H7C4 3.5 2 5 2 8.5V15.5C2 19 4 20.5 7 20.5H17C20 20.5 22 19 22 15.5V8.5C22 5 20 3.5 17 3.5ZM6.25 14.5C6.25 14.91 5.91 15.25 5.5 15.25C5.09 15.25 4.75 14.91 4.75 14.5V9.5C4.75 9.09 5.09 8.75 5.5 8.75C5.91 8.75 6.25 9.09 6.25 9.5V14.5ZM12 15C10.34 15 9 13.66 9 12C9 10.34 10.34 9 12 9C13.66 9 15 10.34 15 12C15 13.66 13.66 15 12 15ZM19.25 14.5C19.25 14.91 18.91 15.25 18.5 15.25C18.09 15.25 17.75 14.91 17.75 14.5V9.5C17.75 9.09 18.09 8.75 18.5 8.75C18.91 8.75 19.25 9.09 19.25 9.5V14.5Z" />
</svg>
